src/icons/symbol-field.svg

<svg width="16" height="16" viewBox="0 0 16 16" fill="none" xmlns="http://www.w3.org/2000/svg">
<path d="M14.45 4.5L9.44995 2H8.55005L1.55005 5.5L1 6.39001V10.89L1.55005 11.79L6.55005 14.29H7.44995L14.45 10.79L15 9.89001V5.39001L14.45 4.5ZM6.44995 13.14L1.94995 10.89V7.17004L6.44995 9.17004V13.14ZM6.94995 8.33997L2.29004 6.22998L8.94995 2.89001L13.62 5.22998L6.94995 8.33997ZM13.95 9.89001L7.44995 13.14V9.20996L13.95 6.20996V9.89001Z" fill="#75BEFF"/>
</svg>

<svg width="16" height="16" xmlns="http://www.w3.org/2000/svg"><path d="M14.45 4.5l-5-2.5h-.9l-7 3.5-.55.89v4.5l.55.9 5 2.5h.9l7-3.5.55-.9v-4.5l-.55-.89zm-8 8.64l-4.5-2.25V7.17l4.5 2v3.97zm.5-4.8L2.29 6.23l6.66-3.34 4.67 2.34-6.67 3.11zm7 1.55l-6.5 3.25V9.21l6.5-3v3.68z"/></svg>
